X: 37982
T: Spatter The Dew
R: slip jig
M: 9/8
K: Edorian
|:E3 E2 F G2 F|D3 D2 B AFD|EFE E2 F G2 B|AFA dAG FED:|
|:E2 B B2 F G2 F|E2 B B2 G AFD|1 E2 B B2 F G2 B|AFA dAG FED:|
[2 E2 B A>Bc dcB|AF/G/A dAG FED||
|:B2 e e2 ^d e2 =d|B2 e e2 a fdB|1 A2 d d2 c d3|A2 d d2 B AFD:|
[2 ff/g/a efe d2 A|BB/c/d AdG FED||
|:B3 ABA G2 F|E2 ^D E2 B AFD|1 B/c/dB ABA G2 B|AFA d2 B AFD:|
[2 B2 d AA/B/c d2 B|AF/G/A dAG FED||

